src/lib/packages/icons/src/assets/line/users-group-alt.svg

<svg width="24" height="24" viewBox="0 0 24 24" fill="none" xmlns="http://www.w3.org/2000/svg">
<path d="M16.08 10.389C16.196 9.99204 16.611 9.764 17.011 9.88C17.102 9.907 17.209 9.92004 17.34 9.92004C18.211 9.92004 18.92 9.20696 18.92 8.32996C18.92 7.61296 18.436 6.98603 17.741 6.80603C17.34 6.70203 17.099 6.29199 17.204 5.89099C17.307 5.48999 17.714 5.25203 18.118 5.35303C19.473 5.70503 20.42 6.92898 20.42 8.32898C20.42 10.033 19.038 11.4189 17.34 11.4189C17.065 11.4189 16.819 11.386 16.589 11.319C16.191 11.203 15.964 10.787 16.08 10.389ZM18.897 11.931C18.887 11.931 18.878 11.931 18.87 11.931C18.468 11.931 18.135 12.2491 18.121 12.6541C18.105 13.0681 18.429 13.4151 18.843 13.4301C21.076 13.5111 21.25 15.425 21.25 16.01V18C21.25 18.414 21.586 18.75 22 18.75C22.414 18.75 22.75 18.414 22.75 18V16.01C22.75 14.192 21.741 12.033 18.897 11.931ZM6.67004 11.42C6.94504 11.42 7.19102 11.3869 7.42102 11.3199C7.81802 11.2029 8.04605 10.787 7.93005 10.389C7.81405 9.99204 7.39802 9.764 6.99902 9.88C6.90802 9.907 6.80104 9.92004 6.67004 9.92004C5.79904 9.92004 5.08997 9.20696 5.08997 8.32996C5.08997 7.60696 5.57795 6.97602 6.27795 6.79602C6.67795 6.69302 6.92102 6.28406 6.81702 5.88306C6.71302 5.48106 6.30295 5.23799 5.90295 5.34399C4.54195 5.69499 3.59094 6.92296 3.59094 8.32996C3.58994 10.034 4.97204 11.42 6.67004 11.42ZM5.85901 12.65C5.84201 12.236 5.50196 11.909 5.07996 11.931C2.25296 12.045 1.25 14.2 1.25 16.01V18C1.25 18.414 1.586 18.75 2 18.75C2.414 18.75 2.75 18.414 2.75 18V16.01C2.75 15.263 2.98299 13.5161 5.14099 13.4301C5.55499 13.4131 5.87601 13.064 5.85901 12.65ZM8.25806 7C8.25806 4.932 9.94106 3.25 12.0081 3.25C14.0751 3.25 15.7581 4.932 15.7581 7C15.7581 9.068 14.0751 10.75 12.0081 10.75C9.94106 10.75 8.25806 9.068 8.25806 7ZM9.75806 7C9.75806 8.241 10.7681 9.25 12.0081 9.25C13.2481 9.25 14.2581 8.241 14.2581 7C14.2581 5.759 13.2481 4.75 12.0081 4.75C10.7681 4.75 9.75806 5.759 9.75806 7ZM13.777 12.139H10.222C6.38705 12.139 5.02698 14.946 5.02698 17.35V20C5.02698 20.414 5.36298 20.75 5.77698 20.75C6.19098 20.75 6.52698 20.414 6.52698 20V17.35C6.52698 16.479 6.79405 13.639 10.222 13.639H13.777C17.206 13.639 17.472 16.479 17.472 17.35V20C17.472 20.414 17.808 20.75 18.222 20.75C18.636 20.75 18.972 20.414 18.972 20V17.35C18.973 14.946 17.612 12.139 13.777 12.139Z" fill="currentColor"/>
</svg>

<svg xmlns="http://www.w3.org/2000/svg" width="24" height="24" fill="none"><path fill="currentColor" d="M16.08 10.389a.75.75 0 0 1 .931-.509c.091.027.198.04.329.04.871 0 1.58-.713 1.58-1.59 0-.717-.484-1.344-1.179-1.524a.75.75 0 1 1 .377-1.453 3.076 3.076 0 0 1 2.302 2.976 3.089 3.089 0 0 1-3.08 3.09c-.275 0-.521-.033-.751-.1a.749.749 0 0 1-.509-.93Zm2.817 1.542h-.027a.75.75 0 0 0-.027 1.5c2.233.08 2.407 1.994 2.407 2.579V18a.75.75 0 0 0 1.5 0v-1.99c0-1.818-1.009-3.977-3.853-4.079ZM6.67 11.42c.275 0 .521-.033.751-.1a.751.751 0 0 0-.422-1.44c-.091.027-.198.04-.329.04a1.587 1.587 0 0 1-.392-3.124.75.75 0 1 0-.375-1.452 3.087 3.087 0 0 0 .767 6.076Zm-.811 1.23a.741.741 0 0 0-.779-.719c-2.827.114-3.83 2.269-3.83 4.079V18a.75.75 0 0 0 1.5 0v-1.99c0-.747.233-2.494 2.391-2.58a.75.75 0 0 0 .718-.78ZM8.259 7a3.755 3.755 0 0 1 3.75-3.75A3.755 3.755 0 0 1 15.758 7a3.755 3.755 0 0 1-3.75 3.75A3.755 3.755 0 0 1 8.258 7Zm1.5 0c0 1.241 1.01 2.25 2.25 2.25s2.25-1.009 2.25-2.25-1.01-2.25-2.25-2.25A2.253 2.253 0 0 0 9.758 7Zm4.018 5.139h-3.555c-3.835 0-5.195 2.807-5.195 5.211V20a.75.75 0 0 0 1.5 0v-2.65c0-.871.267-3.711 3.695-3.711h3.555c3.429 0 3.695 2.84 3.695 3.711V20a.75.75 0 0 0 1.5 0v-2.65c.001-2.404-1.36-5.211-5.195-5.211Z"/></svg>
